assets/svg/1f320.svg

<svg xmlns="http://www.w3.org/2000/svg" viewBox="0 0 64 64" enable-background="new 0 0 64 64" xmlns:xlink="http://www.w3.org/1999/xlink"><path fill="#f5a300" d="M7 30.982 21.05 41.25 14.204 62 32.14 49.18 50.07 62 57 2z"/><path fill="#fff" d="m38.869 39.859l10.888-7.779h-13.457l-4.16-12.6-4.16 12.6h-13.459l10.889 7.779-4.159 12.601 10.889-7.788 10.89 7.788z" id="0"/><use xlink:href="#0"/><g fill="#ffce31"><path d="m38.99 28.432h3.5l14.51-26.432-19.244 22.693z"/><path d="m57 2l-22.441 13.01 1.831 5.549z"/><path d="M53.891 28.432 57 2 47.19 28.432z"/></g></svg>

<svg xmlns="http://www.w3.org/2000/svg" width="64" height="64" viewBox="0 0 64 64"><path fill="#F5A300" d="M7 30.982l14.055 10.271L14.204 62l17.935-12.822L50.073 62 57 2z"/><path fill="#FFF" d="M38.869 39.859l10.888-7.783H36.299l-4.16-12.596-4.159 12.596H14.521l10.889 7.783-4.159 12.597 10.888-7.784 10.888 7.784z"/><path fill="#FFF" d="M38.869 39.859l10.888-7.783H36.299l-4.16-12.596-4.159 12.596H14.521l10.889 7.783-4.159 12.597 10.888-7.784 10.888 7.784z"/><g fill="#FFCE31"><path d="M38.99 28.432h3.5L57 2 37.756 24.693zM57 2L34.559 15.009l1.832 5.55zM53.891 28.432L57 2l-9.809 26.432z"/></g></svg>
